!!!COM:	Bach, Johann Sebastian
!!!OMV:	Jesu, meine Freude
!!!OTL:	Jesu, meine Freude
**kern	**fb	**kern	**kern	**kern	**kern
*part5	*part5	*part4	*part3	*part2	*part1
*staff5	*	*staff4	*staff3	*staff2	*staff1
*I"Continuo	*	*I"Voice	*I"Voice	*I"Voice	*I"Voice
*I'Cont.	*	*I'V	*I'V	*I'V	*I'V
*clefF4	*	*clefF4	*clefGv2	*clefG2	*clefG2
*Trd0c0	*	*	*	*	*
*k[f#]	*	*k[f#]	*k[f#]	*k[f#]	*k[f#]
*M4/4	*	*M4/4	*M4/4	*M4/4	*M4/4
=	=	=	=	=	=
4E	.	4E	4e	4g	4b
4D	6	4D	4B	4f#	4b
8CL	6	8CL	4c	8eL	4a
8BBJ	.	8BBJ	.	8d#XJ	.
8AAL	7 5	8AAL	8cL	4e	4g
8GGJ	.	8GGJ	8BJ	.	.
=3	=3	=3	=3	=3	=3
4AA	6 5	4AA	4c	4e	2f#
4BB	#	4BB	8BL	4d#X	.
.	.	.	8AJ	.	.
2EE;	.	2EE;	2G;	2B;	2e;
=4	=4	=4	=4	=4	=4
4E	.	4E	8eL	8gL	4b
.	.	.	8dnJ	8f#J	.
8AL	#	8AL	8c#XL	4e	4cc#X
8GJ	.	8GJ	8BJ	.	.
4F#	6	4F#	4A	4f#	4dd
8GL	.	8GL	8GL	4d	4b
8F#J	.	8F#J	8AJ	.	.
=5	=5	=5	=5	=5	=5
8EL	.	8EL	4B	4g	2ee
8GJ	.	8GJ	.	.	.
4c	6	4c	4e	4a	.
2B;	#	2B;	2f#;	2b;	2dd#X;
=6	=6	=6	=6	=6	=6
8GL	6	8GL	4B	4b	4ee
8F#J	.	8F#J	.	.	.
4E	.	4E	4e	4b	4gg
4A	6 5	4A	4e	4cc	4ff#
4B	#	4B	4d#X	8bL	4ff#
.	.	.	.	8aJ	.
=7	=7	=7	=7	=7	=7
1E;	.	1E;	1B;	1g;	1ee;
=8:|!	=8:|!	=8:|!	=8:|!	=8:|!	=8:|!
!!linebreak:original
4E	.	4E	4e	4g	4b
4D#X	6	4D#X	8BL	4f#	4b
.	.	.	8AJ	.	.
8EL	6 5	8EL	8GL	4e	4cc
8F#J	6 5	8F#J	8AJ	.	.
4G	.	4G	4B	8dnL	4b
.	.	.	.	8gJ	.
=9	=9	=9	=9	=9	=9
4C#X	6 5	4C#X	4e	4g	4a
4D	.	4Dn	8dL	4f#	4a
.	.	.	8cJ	.	.
2GG;	.	2GG;	2B;	2d;	2g;
=10	=10	=10	=10	=10	=10
4G	.	4G	4B	4d	4b
8F#L	7 #5\	8F#L	4B	4g	4cc#X
8EJ	.	8EJ	.	.	.
4F#	6 #	4F#	4A#X	4f#	4dd
8EL	5 2	8EL	4B	4f#	4b
8DJ	.	8DJ	.	.	.
=11	=11	=11	=11	=11	=11
4C#X	#6\ nr5	4C#X	4A#X	4g	4ee
8DL	6	8DL	4B	4f#	8ddL
8EJ	.	8EJ	.	.	8cc#XJ
2F#	#5\ 4	2F#	4B	4.f#	2cc#
.	#	.	4A#	.	.
.	.	.	.	8e	.
=12	=12	=12	=12	=12	=12
2BB;	#	2BB;	2F#;	2d#X;	2b;
8EL	.	8EL	8GL	4e	4b
8F#J	.	8F#J	8AnJ	.	.
8GL	6	8GL	4B	8eL	4b
8EJ	.	8EJ	.	8dnJ	.
=13	=13	=13	=13	=13	=13
!!pagebreak:original
8CL	6	8CL	4c	8eL	4a
8DJ	.	8DJ	.	8f#J	.
8EL	.	8EL	4B	8gL	4g
8CJ	.	8CJ	.	8eJ	.
4AA#X	6 5	4AA#X	4c#X	4e	2f#
4BB	#	4BB	8BL	4d#X	.
.	.	.	8AJ	.	.
=14	=14	=14	=14	=14	=14
1EE;	#	1EE;	1G#X;	1B;	1e;
=||	=||	=||	=||	=||	=||
*-	*-	*-	*-	*-	*-
!!!system-decoration: s1,s2,s3,s4,s5
